X:1
T: The Bulldozer
C:
R:Reel
Q: 232
K:D
M:4/4
L:1/8
|:((3A,B,C)|D2 DE F2 FG|A2 Bc d2 de|fe fb af df|ea fd ed BA|
D2 DE F2 FG|A2 Bc d2 de|fe fb af df|ea fe d2:|
|:de|fe df ec zA|Bd cB AF z d1/2e1/2|fe df ec ze|fa ^gb a2 de|
fe df ec zA|Bd cB AF zE|D2 DE FA dA|Bd ce d2:|
